.local/share/icons/Gruvbox-Plus-Dark/actions/24/vm-snapshot-revert.svg

<svg xmlns="http://www.w3.org/2000/svg" width="24" height="24" version="1.1">
 <defs>
  <style id="current-color-scheme" type="text/css">
   .ColorScheme-Text { color:#555555; } .ColorScheme-Highlight { color:#4285f4; } .ColorScheme-NeutralText { color:#ff9800; } .ColorScheme-PositiveText { color:#4caf50; } .ColorScheme-NegativeText { color:#f44336; }
  </style>
  <style id="current-color-scheme-3" type="text/css">
   .ColorScheme-Text { color:#555555; } .ColorScheme-Highlight { color:#4285f4; } .ColorScheme-NeutralText { color:#ff9800; } .ColorScheme-PositiveText { color:#4caf50; } .ColorScheme-NegativeText { color:#f44336; }
  </style>
 </defs>
 <path style="fill:currentColor" class="ColorScheme-Text" d="M 8.5,4 C 7.132132,4 6,5.1321324 6,6.5 V 9.050781 C 4.866938,9.28618 4,10.303116 4,11.5 v 6 C 4,18.867868 5.132132,20 6.5,20 h 6 c 0.338022,0 0.661266,-0.07055 0.957031,-0.195312 C 12.91982,19.308688 12.51156,18.689262 12.267578,18 H 6.5 C 6.205537,18 6,17.794463 6,17.5 v -6 C 6,11.205537 6.205537,11 6.5,11 h 2.5 2 1.5 c 0.294463,0 0.5,0.205537 0.5,0.5 v 2.185547 c 0.522581,-0.648651 1.214946,-1.139527 2,-1.417969 V 11.5 C 15,10.132132 13.867868,9 12.5,9 h 5 C 17.794463,9 18,9.205537 18,9.5 v 2.757813 c 0.784592,0.277359 1.476907,0.766848 2,1.414062 V 9.5 C 20,8.132132 18.867868,7 17.5,7 H 17 V 6.5 C 17,5.1321324 15.867868,4 14.5,4 Z m 0,2 h 6 C 14.794463,6 15,6.2055368 15,6.5 V 7 H 11.5 C 10.303116,7 9.2861799,7.8669384 9.0507812,9 H 8 V 6.5 C 8,6.2055368 8.2055368,6 8.5,6 Z m 8,7 C 14.567003,13 13,14.567003 13,16.5 13,18.432997 14.567003,20 16.5,20 18.432997,20 20,18.432997 20,16.5 20,14.567003 18.432997,13 16.5,13 Z M 16,14.099609 V 15 h 1.214844 C 18.286274,15 19,15.899608 19,17.099609 c 0,1.439999 -1.427734,2 -1.427734,2 0,0 0.535156,-0.88039 0.535156,-1.40039 C 18.107422,17.179218 17.999442,17 17.035156,17 H 16 v 0.699219 L 14,16 Z"/>
</svg>

<svg width="24" height="24" version="1.1" xmlns="http://www.w3.org/2000/svg">
  <defs>
    <style id="current-color-scheme" type="text/css">.ColorScheme-Text { color:#ebdbb2; } .ColorScheme-Highlight { color:#458588; }</style>
  </defs>
  <path class="ColorScheme-Text" d="m8.5 4c-1.368 0-2.5 1.132-2.5 2.5v2.551c-1.133 0.2354-2 1.252-2 2.449v6c0 1.368 1.132 2.5 2.5 2.5h6c0.338 0 0.6613-0.07055 0.957-0.1953-0.5372-0.496-0.9455-1.115-1.189-1.805h-5.768c-0.2945 0-0.5-0.2055-0.5-0.5v-6c0-0.2945 0.2055-0.5 0.5-0.5h6c0.2945 0 0.5 0.2055 0.5 0.5v2.186c0.5226-0.6487 1.215-1.14 2-1.418v-0.7676c0-1.368-1.132-2.5-2.5-2.5h5c0.2945 0 0.5 0.2055 0.5 0.5v2.758c0.7846 0.2774 1.477 0.7668 2 1.414v-4.172c0-1.368-1.132-2.5-2.5-2.5h-0.5v-0.5c0-1.368-1.132-2.5-2.5-2.5h-6zm0 2h6c0.2945 0 0.5 0.2055 0.5 0.5v0.5h-3.5c-1.197 0-2.214 0.8669-2.449 2h-1.051v-2.5c0-0.2945 0.2055-0.5 0.5-0.5zm8 7c-1.933 0-3.5 1.567-3.5 3.5s1.567 3.5 3.5 3.5 3.5-1.567 3.5-3.5-1.567-3.5-3.5-3.5zm-0.5 1.1v0.9004h1.215c1.071 0 1.785 0.8996 1.785 2.1 0 1.44-1.428 2-1.428 2s0.5352-0.8804 0.5352-1.4c0-0.52-0.108-0.6992-1.072-0.6992h-1.035v0.6992l-2-1.699 2-1.9z" fill="currentColor"/>
</svg>
